figures-source/3.5.svg

<?xml version="1.0" encoding="utf-8"?>
<svg xmlns="http://www.w3.org/2000/svg" xmlns:xlink="http://www.w3.org/1999/xlink">
	<defs>
		<marker id="Arrow1Lend" orient="auto" refX="0.0" refY="0.0" style="overflow:visible;">
			
              
			<path d="M -10,0.0 L -10.0,-2.0 L 0.0,0.0 L -10.0,2.0 z " id="path3666" style="fill-rule:evenodd;stroke:#000000;stroke-width:1.0px;marker-start:none;"/>
			
            
		</marker>
	</defs>
	<g style="stroke:#000000;fill:#fff">
		<rect height="55.0" id="303" rx="5.0" ry="5.0" style="stroke:#504c4d;stroke-width:3.000000px;fill:#d2d7d5" width="112.38" x="469.385" y="145.0"/>
		<text id="303_text" style="fill:#000000;stroke:#000000;stroke-width:0px;font-family: Geneva;font-size:14px" x="469.385" y="145.0">
			<tspan fill="#000000" font-family="Geneva;" font-size="14.0px" id="303_line1" stroke="#000000" text-align="center" text-anchor="middle" x="525.575" y="179.5">
				master
			</tspan>
		</text>
		<rect height="55.0" id="306" rx="5.0" ry="5.0" style="stroke:#504c4d;stroke-width:3.000000px;fill:#d2d7d5" width="112.38" x="469.385" y="352.0"/>
		<text id="306_text" style="fill:#000000;stroke:#000000;stroke-width:0px;font-family: Geneva;font-size:14px" x="469.385" y="352.0">
			<tspan fill="#000000" font-family="Geneva;" font-size="14.0px" id="306_line1" stroke="#000000" text-align="center" text-anchor="middle" x="525.575" y="386.5">
				testing
			</tspan>
		</text>
		<rect height="55.0" id="308" rx="5.0" ry="5.0" style="stroke:#272525;stroke-width:3.000000px;fill:#484a49" width="112.38" x="469.385" y="41.5"/>
		<text id="308_text" style="fill:#ffffff;stroke:#ffffff;stroke-width:0px;font-family: Geneva;font-size:14px" x="469.385" y="41.5">
			<tspan fill="#ffffff" font-family="Geneva;" font-size="14.0px" id="308_line1" stroke="#ffffff" text-align="center" text-anchor="middle" x="525.575" y="76.0">
				HEAD
			</tspan>
		</text>
		<path d="M 525.575,98.0 L 525.575,143.5" id="309" style="marker-start:none;stroke:#000000;stroke-width:3.000000px;marker-end:url(#Arrow1Lend);fill:none"/>
		<rect height="55.0" id="310" rx="5.0" ry="5.0" style="stroke:#28502c;stroke-width:3.000000px;fill:#baffb3" width="127.864" x="61.0" y="248.5"/>
		<text id="310_text" style="fill:#000000;stroke:#000000;stroke-width:0px;font-family: Geneva;font-size:14px" x="61.0" y="248.5">
			<tspan fill="#000000" font-family="Courier;" font-size="18.0px" id="310_line1" stroke="#000000" text-align="center" text-anchor="middle" x="124.932" y="285.0">
				98ca9
			</tspan>
		</text>
		<rect height="55.0" id="311" rx="5.0" ry="5.0" style="stroke:#28502c;stroke-width:3.000000px;fill:#baffb3" width="127.864" x="258.412" y="248.5"/>
		<text id="311_text" style="fill:#000000;stroke:#000000;stroke-width:0px;font-family: Geneva;font-size:14px" x="258.412" y="248.5">
			<tspan fill="#000000" font-family="Courier;" font-size="18.0px" id="311_line1" stroke="#000000" text-align="center" text-anchor="middle" x="322.344" y="285.0">
				34ac2
			</tspan>
		</text>
		<rect height="55.0" id="312" rx="5.0" ry="5.0" style="stroke:#28502c;stroke-width:3.000000px;fill:#baffb3" width="127.864" x="461.643" y="248.5"/>
		<text id="312_text" style="fill:#000000;stroke:#000000;stroke-width:0px;font-family: Geneva;font-size:14px" x="461.643" y="248.5">
			<tspan fill="#000000" font-family="Courier;" font-size="18.0px" id="312_line1" stroke="#000000" text-align="center" text-anchor="middle" x="525.575" y="285.0">
				f30ab
			</tspan>
		</text>
		<path d="M 256.912,276.0 L 190.364,276.0" id="313" style="marker-start:none;stroke:#000000;stroke-width:3.000000px;marker-end:url(#Arrow1Lend);fill:none"/>
		<path d="M 460.143,276.0 L 387.776,276.0" id="314" style="marker-start:none;stroke:#000000;stroke-width:3.000000px;marker-end:url(#Arrow1Lend);fill:none"/>
		<path d="M 525.575,201.5 L 525.575,247.0" id="315" style="marker-start:none;stroke:#000000;stroke-width:3.000000px;marker-end:url(#Arrow1Lend);fill:none"/>
		<path d="M 525.575,350.5 L 525.575,305.0" id="316" style="marker-start:none;stroke:#000000;stroke-width:3.000000px;marker-end:url(#Arrow1Lend);fill:none"/>
	</g>
</svg>

<svg xmlns:rdf="http://www.w3.org/1999/02/22-rdf-syntax-ns#" xmlns="http://www.w3.org/2000/svg" height="368.5" width="531.51" version="1.1" xmlns:cc="http://creativecommons.org/ns#" xmlns:dc="http://purl.org/dc/elements/1.1/">
 <metadata>
  <rdf:RDF>
   <cc:Work rdf:about="">
    <dc:format>image/svg+xml</dc:format>
    <dc:type rdf:resource="http://purl.org/dc/dcmitype/StillImage"/>
    <dc:title/>
   </cc:Work>
  </rdf:RDF>
 </metadata>
 <defs>
  <marker id="Arrow1Lend" refY="0" refX="0" orient="auto">
   <path style="marker-start:none;" d="m-10,0,0-2,10,2-10,2z" fill-rule="evenodd" stroke="#000" stroke-width="1px"/>
  </marker>
 </defs>
 <g transform="translate(-59.5,-40)">
  <rect rx="5" ry="5" height="55" width="112.38" stroke="#504c4d" y="145" x="469.39" stroke-width="3px" fill="#d2d7d5"/>
  <text font-family="Geneva" font-size="14px" stroke="#000000" y="145" x="469.38501" stroke-width="0px" fill="#000000">
   <tspan font-size="14px" fill="#000000" style="text-anchor:middle;text-align:center;" stroke="#000000" y="179.5" x="525.57501" font-family="&apos;Geneva" text-align="center">master</tspan>
  </text>
  <rect rx="5" ry="5" height="55" width="112.38" stroke="#504c4d" y="352" x="469.39" stroke-width="3px" fill="#d2d7d5"/>
  <text font-family="Geneva" font-size="14px" stroke="#000000" y="352" x="469.38501" stroke-width="0px" fill="#000000">
   <tspan font-size="14px" fill="#000000" style="text-anchor:middle;text-align:center;" stroke="#000000" y="386.5" x="525.57501" font-family="&apos;Geneva" text-align="center">testing</tspan>
  </text>
  <rect rx="5" ry="5" height="55" width="112.38" stroke="#272525" y="41.5" x="469.39" stroke-width="3px" fill="#484a49"/>
  <text font-family="Geneva" font-size="14px" stroke="#ffffff" y="41.5" x="469.38501" stroke-width="0px" fill="#ffffff">
   <tspan font-size="14px" fill="#ffffff" style="text-anchor:middle;text-align:center;" stroke="#ffffff" y="76" x="525.57501" font-family="&apos;Geneva" text-align="center">HEAD</tspan>
  </text>
  <path style="marker-start:none;marker-end:url(#Arrow1Lend);" d="m525.58,98,0,45.5" stroke="#000" stroke-width="3px" fill="none"/>
  <rect rx="5" ry="5" height="55" width="127.86" stroke="#28502c" y="248.5" x="61" stroke-width="3px" fill="#baffb3"/>
  <text font-family="Geneva" font-size="14px" stroke="#000000" y="248.5" x="61" stroke-width="0px" fill="#000000">
   <tspan font-size="18px" fill="#000000" style="text-anchor:middle;text-align:center;" stroke="#000000" y="285" x="124.932" font-family="&apos;Courier" text-align="center">98ca9</tspan>
  </text>
  <rect rx="5" ry="5" height="55" width="127.86" stroke="#28502c" y="248.5" x="258.41" stroke-width="3px" fill="#baffb3"/>
  <text font-family="Geneva" font-size="14px" stroke="#000000" y="248.5" x="258.41199" stroke-width="0px" fill="#000000">
   <tspan font-size="18px" fill="#000000" style="text-anchor:middle;text-align:center;" stroke="#000000" y="285" x="322.34399" font-family="&apos;Courier" text-align="center">34ac2</tspan>
  </text>
  <rect rx="5" ry="5" height="55" width="127.86" stroke="#28502c" y="248.5" x="461.64" stroke-width="3px" fill="#baffb3"/>
  <text font-family="Geneva" font-size="14px" stroke="#000000" y="248.5" x="461.64301" stroke-width="0px" fill="#000000">
   <tspan font-size="18px" fill="#000000" style="text-anchor:middle;text-align:center;" stroke="#000000" y="285" x="525.57501" font-family="&apos;Courier" text-align="center">f30ab</tspan>
  </text>
  <path style="marker-start:none;marker-end:url(#Arrow1Lend);" d="m256.91,276-66.548,0" stroke="#000" stroke-width="3px" fill="none"/>
  <path style="marker-start:none;marker-end:url(#Arrow1Lend);" d="m460.14,276-72.367,0" stroke="#000" stroke-width="3px" fill="none"/>
  <path style="marker-start:none;marker-end:url(#Arrow1Lend);" d="m525.58,201.5,0,45.5" stroke="#000" stroke-width="3px" fill="none"/>
  <path style="marker-start:none;marker-end:url(#Arrow1Lend);" d="m525.58,350.5,0-45.5" stroke="#000" stroke-width="3px" fill="none"/>
 </g>
</svg>
